_site/img/work/archive/cp-logo.svg

<svg height="184" viewBox="0 0 186 184" width="186" xmlns="http://www.w3.org/2000/svg"><path d="m179.222 78.884-12.128-8.3441c-5.069-3.4692-7.64-9.5348-6.588-15.5429l2.536-14.4249c.884-5.045-.778-10.1991-4.452-13.8061-3.673-3.607-8.896-5.2122-13.989-4.3l-14.527 2.5905c-6.077 1.0909-12.241-1.41-15.794-6.408l-8.545-11.94349c-2.965-4.2015-7.8174-6.70501-12.9969-6.70501-5.1794 0-10.0321 2.50351-12.9967 6.70501l-8.4348 11.99799c-3.5069 5.0145-9.6384 7.5578-15.7118 6.5171l-14.5541-2.5086c-5.1015-.8713-10.312.7725-13.9617 4.4047-3.6497 3.6321-5.2801 8.7964-4.3688 13.8377l2.6187 14.3703c1.1027 6.012-1.4254 12.11-6.4777 15.6247l-12.07331 8.4805c-4.24716 2.9326-6.77789 7.7331-6.77789 12.8569s2.53073 9.9247 6.77789 12.8567l12.12841 8.344c5.069 3.47 7.6399 9.535 6.588 15.543l-2.536 14.398c-.8807 5.047.781 10.201 4.4526 13.811 3.6716 3.611 8.892 5.224 13.9881 4.322l14.5266-2.59c6.0773-1.091 12.2416 1.41 15.7945 6.408l8.5726 11.916c2.9646 4.201 7.8173 6.705 12.9967 6.705 5.1795 0 10.0326-2.504 12.9966-6.705l8.435-11.998c3.516-5.019 9.658-7.562 15.739-6.517l14.554 2.509c5.1.874 10.31-.77 13.957-4.404 3.646-3.634 5.269-8.801 4.346-13.839l-2.618-14.37c-1.103-6.012 1.425-12.11 6.477-15.625l12.046-8.453c4.247-2.933 6.778-7.7333 6.778-12.857 0-5.1238-2.531-9.9244-6.778-12.857zm-67.313 21.189 12.515 23.34-.515-.282.407.759-23.621-12.948-7.7638 32.058-7.6535-32.086-23.7311 12.431.4643-.84-.4897.254 12.7041-22.675-32.2253-7.6521 1.0093-.2361-1.059-.2503 32.2233-7.51-12.9849-23.6258.4721.2594-.4152-.7548 24.0639 13.3615 7.7732-32.1765 7.6633 32.1765 23.595-12.5162-.295.5419.242-.1285-12.464 22.9396 32.253 7.651-.902.2088.825.1958z" fill="#fff" fill-rule="evenodd"/></svg>

<?xml version="1.0" encoding="UTF-8"?> <svg xmlns:xlink="http://www.w3.org/1999/xlink" xmlns="http://www.w3.org/2000/svg" width="186px" height="184px" viewBox="0 0 186 184" version="1.1"><desc>Created with Lunacy</desc><path d="M179.222 78.884L167.094 70.5399C162.025 67.0707 159.454 61.0051 160.506 54.997L163.042 40.5721C163.926 35.5271 162.264 30.373 158.59 26.766C154.917 23.159 149.694 21.5538 144.601 22.466L130.074 25.0565C123.997 26.1474 117.833 23.6465 114.28 18.6485L105.735 6.70501C102.77 2.50351 97.9176 0 92.7381 0C87.5587 0 82.706 2.50351 79.7414 6.70501L71.3066 18.703C67.7997 23.7175 61.6682 26.2608 55.5948 25.2201L41.0407 22.7115C35.9392 21.8402 30.7287 23.484 27.079 27.1162C23.4293 30.7483 21.7989 35.9126 22.7102 40.9539L25.3289 55.3242C26.4316 61.3362 23.9035 67.4342 18.8512 70.9489L6.77789 79.4294C2.53073 82.362 0 87.1625 0 92.2863C0 97.4101 2.53073 102.211 6.77789 105.143L18.9063 113.487C23.9753 116.957 26.5462 123.022 25.4943 129.03L22.9583 143.428C22.0776 148.475 23.7393 153.629 27.4109 157.239C31.0825 160.85 36.3029 162.463 41.399 161.561L55.9256 158.971C62.0029 157.88 68.1672 160.381 71.7201 165.379L80.2927 177.295C83.2573 181.496 88.11 184 93.2894 184C98.4689 184 103.322 181.496 106.286 177.295L114.721 165.297C118.237 160.278 124.379 157.735 130.46 158.78L145.014 161.289C150.114 162.163 155.324 160.519 158.971 156.885C162.617 153.251 164.24 148.084 163.317 143.046L160.699 128.676C159.596 122.664 162.124 116.566 167.176 113.051L179.222 104.598C183.469 101.665 186 96.8647 186 91.741C186 86.6172 183.469 81.8166 179.222 78.884ZM111.909 100.073L124.424 123.413L123.909 123.131L124.316 123.89L100.695 110.942L92.9312 143L85.2777 110.914L61.5466 123.345L62.0109 122.505L61.5212 122.759L74.2253 100.084L42 92.4319L43.0093 92.1958L41.9503 91.9455L74.1736 84.4355L61.1887 60.8097L61.6608 61.0691L61.2456 60.3143L85.3095 73.6758L93.0827 41.4993L100.746 73.6758L124.341 61.1596L124.046 61.7015L124.288 61.573L111.824 84.5126L144.077 92.1636L143.175 92.3724L144 92.5682L111.909 100.073Z" id="Combined-Shape" fill="#FFFFFF" fill-rule="evenodd" stroke="none"></path></svg>
